X: 26965
T: Miss Christina Stewart
R: jig
M: 6/8
K: Dmajor
|:d2D D2F|AFD D2A,|B,2E EFD|"*"C2A, A,2A|
d2D D2F|AFD D2A|Bgf edc|(d3 d2)A:|
|:d2d faf|dfd faf|B2e efe|c2A A2A|
[1d2d faf|gbg faf|ege cBc|(d3 d2)A:|
[2def efg|fed cBA|(3Bcd B cec|(d3 d2)A||
"* variant"|E2D CB,A,||

